front/assets/images/icone-centre-aide.svg

<svg width="30" height="30" viewBox="0 0 30 30" fill="none" xmlns="http://www.w3.org/2000/svg">
<g id="Ic&#195;&#180;ne">
<path id="Ic&#195;&#180;ne_2" fill-rule="evenodd" clip-rule="evenodd" d="M26.25 3.75C26.9404 3.75 27.5 4.30964 27.5 5V22.5C27.5 23.1904 26.9404 23.75 26.25 23.75H8.06875L2.5 28.125V5C2.5 4.30964 3.05964 3.75 3.75 3.75H26.25ZM25 6.25H5V22.9813L7.20375 21.25H25V6.25ZM16.25 17.5V20H13.75V17.5H16.25ZM15.574 7.53528C17.8594 7.83754 19.5185 9.86098 19.367 12.1613C19.2155 14.4617 17.3054 16.2501 15 16.25H13.75V13.75H15C15.9877 13.7499 16.806 12.9837 16.8708 11.9981C16.9357 11.0126 16.2249 10.1457 15.2457 10.0162C14.2666 9.88668 13.3548 10.539 13.1613 11.5075L10.7088 11.0162C11.1605 8.75558 13.2885 7.23301 15.574 7.53528Z" fill="#F5F5FE"/>
</g>
</svg>

<svg xmlns="http://www.w3.org/2000/svg" width="30" height="30" fill="none"><path fill="#F5F5FE" fill-rule="evenodd" d="M26.25 3.75c.69 0 1.25.56 1.25 1.25v17.5c0 .69-.56 1.25-1.25 1.25H8.069L2.5 28.125V5c0-.69.56-1.25 1.25-1.25zM25 6.25H5v16.731l2.204-1.731H25zM16.25 17.5V20h-2.5v-2.5zm-.676-9.965A4.376 4.376 0 0 1 15 16.25h-1.25v-2.5H15a1.875 1.875 0 1 0-1.839-2.242l-2.452-.492a4.376 4.376 0 0 1 4.865-3.48" clip-rule="evenodd"/></svg>
